src/components/Home/HowItWorks/assets/how-qr.svg

<svg width="88" height="69" viewBox="0 0 88 69" fill="none" xmlns="http://www.w3.org/2000/svg">
<path d="M28.4736 12.7196H24.9062V44.6617H28.4736V12.7196Z" fill="#B69538"/>
<path d="M28.4736 12.7196H24.9062V44.6617H28.4736V12.7196Z" stroke="#010101" stroke-width="1.42879" stroke-linecap="round" stroke-linejoin="round"/>
<path d="M64.876 12.7196H61.3086V44.6617H64.876V12.7196Z" fill="#B69538"/>
<path d="M64.876 12.7196H61.3086V44.6617H64.876V12.7196Z" stroke="#010101" stroke-width="1.42879" stroke-linecap="round" stroke-linejoin="round"/>
<path d="M86 2H2V54.4891H86V2Z" stroke="#010101" stroke-width="2.85758" stroke-linecap="round" stroke-linejoin="round"/>
<path d="M60.9273 36.2489H28.4766V59.9187H60.9273V36.2489Z" fill="white"/>
<path d="M57.2325 8.23303H32.5536C30.3019 8.23303 28.4766 10.0592 28.4766 12.3118V62.7743C28.4766 65.027 30.3019 66.8531 32.5536 66.8531H57.2325C59.4842 66.8531 61.3096 65.027 61.3096 62.7743V12.3118C61.3096 10.0592 59.4842 8.23303 57.2325 8.23303Z" stroke="#010101" stroke-width="2.85758" stroke-linecap="round" stroke-linejoin="round"/>
<path d="M28.8047 14.8489H60.9369" stroke="#010101" stroke-width="2.85758" stroke-linecap="round" stroke-linejoin="round"/>
<path d="M60.9752 60.4293H28.8047" stroke="#010101" stroke-width="2.85758" stroke-linecap="round" stroke-linejoin="round"/>
<path d="M48.7352 11.4832H41.0781" stroke="#010101" stroke-width="2.85758" stroke-linecap="round" stroke-linejoin="round"/>
<path d="M52.7852 49.7347H55.6136V47.1982" stroke="#010101" stroke-width="1.42879" stroke-linecap="round" stroke-linejoin="round"/>
<path d="M34.0938 47.1982V49.7347H36.9222" stroke="#010101" stroke-width="1.42879" stroke-linecap="round" stroke-linejoin="round"/>
<path d="M37.1516 27.3401H34.0938V30.0805" stroke="#010101" stroke-width="1.42879" stroke-linecap="round" stroke-linejoin="round"/>
<path d="M55.844 30.0038V27.4673H53.0156" stroke="#010101" stroke-width="1.42879" stroke-linecap="round" stroke-linejoin="round"/>
<path d="M53.4086 29.8124H36.3359V46.8924H53.4086V29.8124Z" fill="#B69538"/>
<path d="M53.4086 29.8124H36.3359V46.8924H53.4086V29.8124Z" stroke="#010101" stroke-width="1.42879" stroke-linecap="round" stroke-linejoin="round"/>
<path d="M47.394 33.1013H43.9922" stroke="#010101" stroke-width="1.42879" stroke-miterlimit="10"/>
<path d="M47.9453 37.3712V35.8672" stroke="#010101" stroke-width="1.42879" stroke-miterlimit="10"/>
<path d="M50.6836 34.4644V36.7842" stroke="#010101" stroke-width="1.42879" stroke-miterlimit="10"/>
<path d="M46.2251 42.8389H44.9766" stroke="#010101" stroke-width="1.42879" stroke-miterlimit="10"/>
<path d="M42.4766 38.5692V40.9018" stroke="#010101" stroke-width="1.42879" stroke-miterlimit="10"/>
<path d="M45.5977 38.7727V41.1053" stroke="#010101" stroke-width="1.42879" stroke-miterlimit="10"/>
<path d="M41.1536 44.2406H38.8984" stroke="#010101" stroke-width="1.42879" stroke-miterlimit="10"/>
<path d="M44.5391 35.6884V36.7973" stroke="#010101" stroke-width="1.42879" stroke-miterlimit="10"/>
<path d="M39.0469 39.7423V41.3738" stroke="#010101" stroke-width="1.42879" stroke-miterlimit="10"/>
<path d="M44.2604 44.6621H42.7188" stroke="#010101" stroke-width="1.42879" stroke-miterlimit="10"/>
<path d="M50.1602 32.0431V32.7951" stroke="#010101" stroke-width="1.42879" stroke-miterlimit="10"/>
<path d="M41.9416 32.6545H38.6289V36.2617H41.9416V32.6545Z" stroke="#010101" stroke-width="1.42879" stroke-miterlimit="10"/>
<path d="M51.2188 40.2266H47.9062V43.8338H51.2188V40.2266Z" stroke="#010101" stroke-width="1.42879" stroke-miterlimit="10"/>
<path d="M2 59.3459H86" stroke="#010101" stroke-width="1.42879" stroke-linecap="round" stroke-linejoin="round"/>
</svg>

<svg width="88" height="69" fill="none" xmlns="http://www.w3.org/2000/svg"><path d="M28.474 12.72h-3.568v31.942h3.568V12.72z" fill="#B69538"/><path d="M28.474 12.72h-3.568v31.942h3.568V12.72z" stroke="#010101" stroke-width="1.429" stroke-linecap="round" stroke-linejoin="round"/><path d="M64.876 12.72h-3.567v31.942h3.567V12.72z" fill="#B69538"/><path d="M64.876 12.72h-3.567v31.942h3.567V12.72z" stroke="#010101" stroke-width="1.429" stroke-linecap="round" stroke-linejoin="round"/><path d="M86 2H2v52.49h84V2z" stroke="#010101" stroke-width="2.858" stroke-linecap="round" stroke-linejoin="round"/><path d="M60.927 36.249h-32.45v23.67h32.45v-23.67z" fill="#fff"/><path d="M57.233 8.233h-24.68a4.078 4.078 0 0 0-4.076 4.079v50.462a4.078 4.078 0 0 0 4.077 4.08h24.678a4.078 4.078 0 0 0 4.078-4.08V12.312a4.078 4.078 0 0 0-4.078-4.079zm-28.428 6.616h32.132m.038 45.58h-32.17m19.93-48.946h-7.657" stroke="#010101" stroke-width="2.858" stroke-linecap="round" stroke-linejoin="round"/><path d="M52.785 49.735h2.829v-2.537m-21.52 0v2.537h2.828m.23-22.395h-3.058v2.74m21.75-.076v-2.537h-2.828" stroke="#010101" stroke-width="1.429" stroke-linecap="round" stroke-linejoin="round"/><path d="M53.409 29.812H36.336v17.08h17.073v-17.08z" fill="#B69538"/><path d="M53.409 29.812H36.336v17.08h17.073v-17.08z" stroke="#010101" stroke-width="1.429" stroke-linecap="round" stroke-linejoin="round"/><path d="M47.394 33.101h-3.402m3.953 4.27v-1.504m2.739-1.403v2.32m-4.459 6.055h-1.248m-2.5-4.27v2.333m3.12-2.13v2.333m-4.443 3.136h-2.256m5.641-8.553v1.11m-5.492 2.944v1.632m5.213 3.288H42.72m7.441-12.619v.752m-8.218-.14h-3.313v3.607h3.313v-3.608zm9.277 7.572h-3.313v3.607h3.313v-3.607z" stroke="#010101" stroke-width="1.429" stroke-miterlimit="10"/><path d="M2 59.346h84" stroke="#010101" stroke-width="1.429" stroke-linecap="round" stroke-linejoin="round"/></svg>
